X:2031
T:Fly away pretty Moth. CJF.173
O:england
M:2/4
L:1/16
Q:80
S: C.J.Fox MS, 1829/33, Beverley,E.Yorks.
R:Air
A:East Yorkshire
B:Kidson Coll.Mitchell Lib.M1805
N:"?" is in the MS, presumably indicating that the barline is not needed.
N:- PJH.
K:G
GG|B2BB d2dd|g6GG|A2ee d2cc|B4z2GG|\
B2BB d2dd|g2GG G2FG|A2ed d2cA|
G6FG|A2AA A2GA|c2BB B2AB|c2eg f2ed|\
(c2B2)z2GG|B2BB d2dd|g2GG G2FG|A2ed df/"  ?"e/|
dc|{c}B6GG|Bc/B/ ^AB d2c>d|g f/e/d/c/ B/A/ G2FG|A2ed d2FG|G6||


